assets/images/icon-files.svg

<svg xmlns="http://www.w3.org/2000/svg" width="48" height="48" viewBox="0 0 48 48">
  <g fill="none" fill-rule="evenodd">
    <rect width="48" height="39" y="6" fill="#B2D3FF" rx="2"/>
    <path fill="#197BFF" d="M2,3 L20.1715729,3 L20.1715729,3 C20.7020059,3 21.2107137,3.21071368 21.5857864,3.58578644 L23.4142136,5.41421356 L23.4142136,5.41421356 C23.7892863,5.78928632 24.2979941,6 24.8284271,6 L45,6 L45,6 C46.6568542,6 48,7.34314575 48,9 L48,9 L24.8284271,9 L24.8284271,9 C24.2979941,9 23.7892863,9.21071368 23.4142136,9.58578644 L21.5857864,11.4142136 L21.5857864,11.4142136 C21.2107137,11.7892863 20.7020059,12 20.1715729,12 L0,12 L0,5 L0,5 C-1.3527075e-16,3.8954305 0.8954305,3 2,3 Z"/>
  </g>
</svg>

<svg xmlns="http://www.w3.org/2000/svg" width="48" height="48"><g fill="none" fill-rule="evenodd"><rect width="48" height="39" y="6" fill="#B2D3FF" rx="2"/><path fill="#197BFF" d="M2 3h18.172a2 2 0 0 1 1.414.586l1.828 1.828A2 2 0 0 0 24.828 6H45a3 3 0 0 1 3 3H24.828a2 2 0 0 0-1.414.586l-1.828 1.828a2 2 0 0 1-1.414.586H0V5a2 2 0 0 1 2-2z"/></g></svg>
